Sources/FrostedUI/Resources/Icons.xcassets/swords24.imageset/swords-24.svg

<svg width="24" height="24" viewBox="0 0 24 24" fill="none" xmlns="http://www.w3.org/2000/svg" data-fui-icon="true">
  <g clip-path="url(#clip0_1083_205)">
    <path
      fill-rule="evenodd"
      clip-rule="evenodd"
      d="M4.53648 0.469811C4.3409 0.274229 4.05355 0.20217 3.78882 0.28232C3.52409 0.36247 3.32497 0.581819 3.27072 0.853041C2.81823 3.11526 3.52635 5.45393 5.15762 7.08519L14.2384 16.166C13.0239 17.884 13.1856 20.2772 14.7237 21.8152L15.3692 22.4607C17.0841 24.1756 19.8619 24.1796 21.5817 22.4727L21.594 22.4607L23.5305 20.5242C23.8233 20.2313 23.8233 19.7565 23.5305 19.4636L18.2513 14.1844L18.6891 13.7467C18.982 13.4538 18.982 12.9789 18.6891 12.686C18.3962 12.3931 17.9213 12.3931 17.6284 12.686L17.1905 13.1239L4.53648 0.469811ZM16.1299 14.1845L4.66069 2.71534C4.77772 3.95021 5.31859 5.12485 6.21828 6.02453L15.2541 15.0603L16.1299 14.1845ZM20.7293 0.853057C20.6751 0.581831 20.4759 0.362477 20.2112 0.282323C19.9465 0.202169 19.6591 0.274227 19.4635 0.469811L13.201 6.73235L12.6707 7.26268L13.7313 8.32334L14.2617 7.79301L19.3393 2.71536C19.2223 3.95023 18.6814 5.12485 17.7817 6.02452L17.7817 6.02453L15.1374 8.66878L14.6071 9.19911L15.6678 10.2598L16.1981 9.72945L18.8424 7.0852L18.8424 7.08519C20.4737 5.45392 21.1817 3.11525 20.7293 0.853057ZM5.3109 12.686C5.60379 12.3931 6.07867 12.3931 6.37156 12.686L6.80944 13.1239L7.73227 12.2011L8.26261 11.6707L9.32326 12.7314L8.79292 13.2617L7.8702 14.1844L8.746 15.0602L9.66876 14.1375L10.1991 13.6072L11.2597 14.6679L10.7294 15.1982L9.76156 16.166C10.9761 17.884 10.8143 20.2772 9.27626 21.8152L8.63078 22.4607C6.91192 24.1796 4.12511 24.1796 2.40624 22.4607L0.469804 20.5243C0.20445 20.2589 0.179501 19.8442 0.394955 19.5508C0.413599 19.5254 0.434044 19.5009 0.45629 19.4775L0.469944 19.4635L5.74882 14.1846L5.3109 13.7467C5.01801 13.4538 5.01801 12.9789 5.3109 12.686ZM7.68526 16.121L6.80947 15.2452L2.06092 19.9938L2.93671 20.8696L7.68526 16.121ZM8.2156 20.7546C9.1653 19.8049 9.319 18.3606 8.67671 17.2509L4.0664 21.8612C5.17618 22.5035 6.62043 22.3498 7.57012 21.4001L8.2156 20.7546ZM15.7844 20.7546C14.8346 19.8048 14.681 18.3605 15.3234 17.2507L19.9338 21.8611C18.824 22.5035 17.3796 22.3498 16.4299 21.4001L15.7844 20.7546ZM21.0636 20.8696L21.9394 19.9938L17.1908 15.2453L16.315 16.121L21.0636 20.8696Z"
      fill="currentColor"
    />
  </g>
  <defs>
    <clipPath id="clip0_1083_205"><path fill="currentColor" d="M0 0H24V24H0z" /></clipPath>
  </defs>
</svg>

<svg xmlns="http://www.w3.org/2000/svg" width="24" height="24" fill="none" data-fui-icon="true" viewBox="0 0 24 24"><g clip-path="url(#a)"><path fill="currentColor" fill-rule="evenodd" d="M4.536.47a.75.75 0 0 0-1.265.383 6.9 6.9 0 0 0 1.887 6.232l9.08 9.081a4.4 4.4 0 0 0 .486 5.65l.645.645a4.4 4.4 0 0 0 6.213.012l.012-.012 1.936-1.937a.75.75 0 0 0 0-1.06l-5.279-5.28.438-.437a.75.75 0 0 0-1.06-1.061l-.439.438zM16.13 14.185 4.66 2.714a5.4 5.4 0 0 0 1.558 3.31l9.036 9.035zM20.73.852A.75.75 0 0 0 19.462.47l-6.262 6.262-.53.53 1.06 1.061.53-.53 5.078-5.078a5.4 5.4 0 0 1-1.557 3.31l-2.645 2.644-.53.53 1.06 1.06.531-.53 2.644-2.644A6.9 6.9 0 0 0 20.73.853M5.31 12.686a.75.75 0 0 1 1.062 0l.437.438.923-.923.53-.53 1.061 1.06-.53.53-.923.923.876.876.923-.923.53-.53 1.06 1.06-.53.531-.967.968a4.4 4.4 0 0 1-.486 5.65l-.645.645a4.4 4.4 0 0 1-6.225 0L.47 20.524a.75.75 0 0 1-.014-1.047l.014-.014 5.279-5.278-.438-.438a.75.75 0 0 1 0-1.061m2.375 3.435-.876-.876-4.748 4.749.876.876zm.53 4.634a2.9 2.9 0 0 0 .462-3.504l-4.61 4.61a2.9 2.9 0 0 0 3.503-.46zm7.57 0a2.9 2.9 0 0 1-.462-3.504l4.61 4.61a2.9 2.9 0 0 1-3.503-.46zm5.279.115.875-.876-4.748-4.749-.876.876z" clip-rule="evenodd"/></g><defs><clipPath id="a"><path fill="currentColor" d="M0 0h24v24H0z"/></clipPath></defs></svg>
